src/assets/features.svg

<svg width="84" height="28" viewBox="0 0 84 28" fill="none" xmlns="http://www.w3.org/2000/svg">
<g style="mix-blend-mode:multiply">
<rect x="1" y="0.5" width="82" height="27" rx="13.5" fill="#F9F5FF"/>
<rect x="1" y="0.5" width="82" height="27" rx="13.5" stroke="#E9D7FE"/>
<path d="M14.0249 19V8.81818H20.3388V10.1406H15.5611V13.2429H19.8864V14.5604H15.5611V19H14.0249ZM24.8393 19.1541C24.0869 19.1541 23.439 18.9934 22.8954 18.6719C22.3552 18.3471 21.9376 17.8913 21.6426 17.3047C21.3509 16.7147 21.2051 16.0237 21.2051 15.2315C21.2051 14.4493 21.3509 13.7599 21.6426 13.1634C21.9376 12.5668 22.3485 12.1011 22.8755 11.7663C23.4058 11.4316 24.0256 11.2642 24.7349 11.2642C25.1658 11.2642 25.5834 11.3355 25.9877 11.478C26.3921 11.6205 26.755 11.8442 27.0765 12.1491C27.398 12.4541 27.6516 12.8501 27.8372 13.3374C28.0228 13.8213 28.1156 14.4096 28.1156 15.1023V15.6293H22.0453V14.5156H26.6589C26.6589 14.1245 26.5794 13.7782 26.4203 13.4766C26.2612 13.1716 26.0375 12.9313 25.7491 12.7557C25.4641 12.58 25.1293 12.4922 24.7449 12.4922C24.3272 12.4922 23.9627 12.5949 23.6511 12.8004C23.3429 13.0026 23.1042 13.2678 22.9352 13.5959C22.7695 13.9207 22.6866 14.2737 22.6866 14.6548V15.5249C22.6866 16.0353 22.7761 16.4695 22.9551 16.8274C23.1374 17.1854 23.3909 17.4588 23.7157 17.6477C24.0405 17.8333 24.42 17.9261 24.8542 17.9261C25.1359 17.9261 25.3928 17.8864 25.6248 17.8068C25.8568 17.724 26.0574 17.6013 26.2264 17.4389C26.3954 17.2765 26.5247 17.076 26.6142 16.8374L28.0211 17.0909C27.9084 17.5052 27.7063 17.8681 27.4146 18.1797C27.1262 18.4879 26.7633 18.7282 26.3258 18.9006C25.8916 19.0696 25.3961 19.1541 24.8393 19.1541ZM31.9872 19.169C31.5033 19.169 31.0658 19.0795 30.6747 18.9006C30.2836 18.7183 29.9737 18.4548 29.745 18.1101C29.5196 17.7654 29.407 17.3428 29.407 16.8423C29.407 16.4115 29.4898 16.0568 29.6555 15.7784C29.8213 15.5 30.045 15.2796 30.3267 15.1172C30.6084 14.9548 30.9233 14.8321 31.2713 14.7493C31.6193 14.6664 31.974 14.6035 32.3352 14.5604C32.7926 14.5073 33.1638 14.4643 33.4489 14.4311C33.7339 14.3946 33.9411 14.3366 34.0703 14.2571C34.1996 14.1776 34.2642 14.0483 34.2642 13.8693V13.8345C34.2642 13.4003 34.1416 13.0639 33.8963 12.8253C33.6544 12.5866 33.2931 12.4673 32.8125 12.4673C32.312 12.4673 31.9176 12.5784 31.6293 12.8004C31.3442 13.0192 31.147 13.2628 31.0376 13.5312L29.6406 13.2131C29.8063 12.7491 30.0483 12.3745 30.3665 12.0895C30.688 11.8011 31.0575 11.5923 31.4751 11.4631C31.8928 11.3305 32.3319 11.2642 32.7926 11.2642C33.0975 11.2642 33.4207 11.3007 33.7621 11.3736C34.1068 11.4432 34.4283 11.5724 34.7266 11.7614C35.0282 11.9503 35.2751 12.2204 35.4673 12.5717C35.6596 12.9197 35.7557 13.3722 35.7557 13.929V19H34.304V17.956H34.2443C34.1482 18.1482 34.004 18.3371 33.8118 18.5227C33.6196 18.7083 33.3726 18.8625 33.071 18.9851C32.7694 19.1077 32.4081 19.169 31.9872 19.169ZM32.3104 17.9759C32.7214 17.9759 33.0727 17.8946 33.3643 17.7322C33.6593 17.5698 33.883 17.3577 34.0355 17.0959C34.1913 16.8307 34.2692 16.5473 34.2692 16.2457V15.2614C34.2161 15.3144 34.1134 15.3641 33.9609 15.4105C33.8118 15.4536 33.6411 15.4917 33.4489 15.5249C33.2566 15.5547 33.0694 15.5829 32.8871 15.6094C32.7048 15.6326 32.5523 15.6525 32.4297 15.669C32.1413 15.7055 31.8778 15.7668 31.6392 15.853C31.4039 15.9392 31.215 16.0634 31.0724 16.2259C30.9332 16.3849 30.8636 16.5971 30.8636 16.8622C30.8636 17.2301 30.9995 17.5085 31.2713 17.6974C31.5431 17.883 31.8894 17.9759 32.3104 17.9759ZM41.3002 11.3636V12.5568H37.1291V11.3636H41.3002ZM38.2477 9.53409H39.7342V16.7578C39.7342 17.0462 39.7773 17.2633 39.8635 17.4091C39.9496 17.5516 40.0607 17.6494 40.1966 17.7024C40.3358 17.7521 40.4866 17.777 40.649 17.777C40.7683 17.777 40.8727 17.7687 40.9622 17.7521C41.0517 17.7356 41.1213 17.7223 41.171 17.7124L41.4395 18.9403C41.3533 18.9735 41.2306 19.0066 41.0716 19.0398C40.9125 19.0762 40.7136 19.0961 40.475 19.0994C40.0839 19.1061 39.7193 19.0365 39.3812 18.8906C39.0431 18.7448 38.7697 18.5194 38.5609 18.2145C38.3521 17.9096 38.2477 17.5268 38.2477 17.0661V9.53409ZM47.782 15.8331V11.3636H49.2734V19H47.8118V17.6776H47.7322C47.5566 18.0852 47.2749 18.425 46.8871 18.6967C46.5026 18.9652 46.0237 19.0994 45.4503 19.0994C44.9598 19.0994 44.5256 18.9917 44.1477 18.7763C43.7732 18.5575 43.4782 18.2344 43.2628 17.8068C43.0507 17.3793 42.9446 16.8506 42.9446 16.2209V11.3636H44.4311V16.0419C44.4311 16.5623 44.5753 16.9766 44.8636 17.2848C45.152 17.593 45.5265 17.7472 45.9872 17.7472C46.2656 17.7472 46.5424 17.6776 46.8175 17.5384C47.0959 17.3991 47.3262 17.1887 47.5085 16.907C47.6941 16.6252 47.7853 16.2673 47.782 15.8331ZM51.2708 19V11.3636H52.7076V12.5767H52.7871C52.9263 12.1657 53.1716 11.8426 53.5229 11.6072C53.8775 11.3686 54.2786 11.2493 54.726 11.2493C54.8188 11.2493 54.9282 11.2526 55.0542 11.2592C55.1834 11.2659 55.2845 11.2741 55.3574 11.2841V12.706C55.2978 12.6894 55.1917 12.6712 55.0392 12.6513C54.8868 12.6281 54.7343 12.6165 54.5819 12.6165C54.2305 12.6165 53.9173 12.6911 53.6422 12.8402C53.3704 12.986 53.155 13.1899 52.9959 13.4517C52.8368 13.7102 52.7573 14.0052 52.7573 14.3366V19H51.2708ZM59.6616 19.1541C58.9092 19.1541 58.2612 18.9934 57.7177 18.6719C57.1774 18.3471 56.7598 17.8913 56.4648 17.3047C56.1732 16.7147 56.0273 16.0237 56.0273 15.2315C56.0273 14.4493 56.1732 13.7599 56.4648 13.1634C56.7598 12.5668 57.1708 12.1011 57.6978 11.7663C58.2281 11.4316 58.8479 11.2642 59.5572 11.2642C59.988 11.2642 60.4057 11.3355 60.81 11.478C61.2144 11.6205 61.5773 11.8442 61.8988 12.1491C62.2203 12.4541 62.4738 12.8501 62.6594 13.3374C62.8451 13.8213 62.9379 14.4096 62.9379 15.1023V15.6293H56.8675V14.5156H61.4812C61.4812 14.1245 61.4016 13.7782 61.2425 13.4766C61.0835 13.1716 60.8597 12.9313 60.5714 12.7557C60.2863 12.58 59.9516 12.4922 59.5671 12.4922C59.1495 12.4922 58.7849 12.5949 58.4734 12.8004C58.1651 13.0026 57.9265 13.2678 57.7575 13.5959C57.5917 13.9207 57.5089 14.2737 57.5089 14.6548V15.5249C57.5089 16.0353 57.5984 16.4695 57.7773 16.8274C57.9596 17.1854 58.2132 17.4588 58.538 17.6477C58.8628 17.8333 59.2423 17.9261 59.6765 17.9261C59.9582 17.9261 60.2151 17.8864 60.4471 17.8068C60.6791 17.724 60.8796 17.6013 61.0487 17.4389C61.2177 17.2765 61.3469 17.076 61.4364 16.8374L62.8434 17.0909C62.7307 17.5052 62.5285 17.8681 62.2369 18.1797C61.9485 18.4879 61.5856 18.7282 61.1481 18.9006C60.7139 19.0696 60.2184 19.1541 59.6616 19.1541ZM70.3095 13.228L68.9622 13.4666C68.9058 13.2943 68.8163 13.1302 68.6937 12.9744C68.5744 12.8187 68.412 12.6911 68.2065 12.5916C68.001 12.4922 67.7441 12.4425 67.4359 12.4425C67.015 12.4425 66.6636 12.5369 66.3819 12.7259C66.1002 12.9115 65.9593 13.1518 65.9593 13.4467C65.9593 13.7019 66.0538 13.9074 66.2427 14.0632C66.4316 14.219 66.7366 14.3466 67.1575 14.446L68.3706 14.7244C69.0732 14.8868 69.5969 15.1371 69.9416 15.4751C70.2863 15.8132 70.4586 16.2524 70.4586 16.7926C70.4586 17.25 70.3261 17.6577 70.0609 18.0156C69.7991 18.3703 69.4328 18.6487 68.9622 18.8509C68.4949 19.053 67.9529 19.1541 67.3365 19.1541C66.4814 19.1541 65.7837 18.9718 65.2434 18.6072C64.7032 18.2393 64.3717 17.7173 64.2491 17.0412L65.6859 16.8224C65.7754 17.197 65.9593 17.4804 66.2377 17.6726C66.5162 17.8615 66.8791 17.956 67.3265 17.956C67.8137 17.956 68.2032 17.8549 68.4949 17.6527C68.7865 17.4472 68.9324 17.197 68.9324 16.902C68.9324 16.6634 68.8429 16.4628 68.6639 16.3004C68.4882 16.138 68.2181 16.0154 67.8535 15.9325L66.5609 15.6491C65.8483 15.4867 65.3213 15.2282 64.9799 14.8736C64.6419 14.5189 64.4728 14.0698 64.4728 13.5263C64.4728 13.0755 64.5988 12.6811 64.8507 12.343C65.1026 12.005 65.4506 11.7415 65.8947 11.5526C66.3388 11.3603 66.8476 11.2642 67.421 11.2642C68.2463 11.2642 68.8959 11.4432 69.3699 11.8011C69.8438 12.1558 70.157 12.6314 70.3095 13.228Z" fill="#6941C6"/>
</g>
</svg>

<svg xmlns="http://www.w3.org/2000/svg" width="84" height="28" fill="none"><g style="mix-blend-mode:multiply"><rect width="82" height="27" x="1" y=".5" fill="#F9F5FF" rx="13.5"/><rect width="82" height="27" x="1" y=".5" stroke="#E9D7FE" rx="13.5"/><path fill="#6941C6" d="M14.025 19V8.818h6.314v1.323H15.56v3.102h4.325v1.317h-4.325V19zm10.814.154q-1.128 0-1.944-.482a3.27 3.27 0 0 1-1.252-1.367q-.438-.885-.438-2.073 0-1.174.438-2.069a3.4 3.4 0 0 1 1.232-1.397q.795-.502 1.86-.502.645 0 1.253.214.606.214 1.088.671t.761 1.188q.279.726.279 1.765v.527h-6.07v-1.113h4.613q0-.587-.239-1.04a1.8 1.8 0 0 0-.67-.72 1.88 1.88 0 0 0-1.005-.264 1.94 1.94 0 0 0-1.094.308 2.07 2.07 0 0 0-.716.796 2.3 2.3 0 0 0-.248 1.059v.87q0 .765.268 1.302.273.538.76.82.488.28 1.14.28.421 0 .77-.12.348-.125.601-.368.255-.244.388-.602l1.407.254a2.55 2.55 0 0 1-.606 1.089 2.94 2.94 0 0 1-1.09.72q-.65.255-1.486.254m7.148.015a3.1 3.1 0 0 1-1.312-.268 2.2 2.2 0 0 1-.93-.79q-.338-.518-.338-1.269 0-.645.248-1.064.249-.417.672-.66.422-.245.944-.369a9 9 0 0 1 1.064-.189l1.114-.129q.427-.054.621-.174.195-.12.194-.388v-.034q0-.652-.368-1.01-.363-.357-1.084-.358-.75 0-1.183.333-.428.33-.591.731l-1.397-.318q.247-.696.726-1.123a2.94 2.94 0 0 1 1.108-.627 4.3 4.3 0 0 1 1.318-.199q.457 0 .97.11.516.104.964.387.452.285.74.81.29.523.289 1.358V19h-1.452v-1.044h-.06q-.144.288-.432.567t-.741.462-1.084.184m.323-1.193q.617 0 1.054-.244.443-.243.672-.636a1.65 1.65 0 0 0 .233-.85v-.985q-.08.08-.308.15-.224.064-.512.114-.289.045-.562.084l-.457.06a3.7 3.7 0 0 0-.79.184q-.354.129-.568.373-.208.238-.208.636 0 .552.407.835.407.279 1.04.279m8.99-6.612v1.193h-4.17v-1.193zm-3.052-1.83h1.486v7.224q0 .432.13.651.129.214.333.293.209.075.452.075.18 0 .313-.025.135-.024.209-.04l.269 1.228a2.5 2.5 0 0 1-.368.1q-.24.054-.597.06a2.6 2.6 0 0 1-1.094-.21 1.88 1.88 0 0 1-.82-.675q-.313-.457-.313-1.149zm9.534 6.3v-4.47h1.491V19h-1.461v-1.322h-.08a2.4 2.4 0 0 1-.845 1.019q-.576.402-1.437.402-.735 0-1.302-.323a2.27 2.27 0 0 1-.885-.97q-.318-.64-.318-1.585v-4.857h1.486v4.678q0 .78.433 1.243.432.462 1.123.462.418 0 .83-.209.419-.209.691-.631.279-.423.274-1.074M51.271 19v-7.636h1.437v1.213h.08q.208-.616.735-.97a2.1 2.1 0 0 1 1.203-.358 6 6 0 0 1 .631.035v1.422a3 3 0 0 0-.318-.055 3 3 0 0 0-.457-.034 1.94 1.94 0 0 0-.94.223 1.66 1.66 0 0 0-.885 1.497V19zm8.39.154q-1.128 0-1.943-.482a3.27 3.27 0 0 1-1.253-1.367q-.438-.885-.438-2.073 0-1.174.438-2.069a3.4 3.4 0 0 1 1.233-1.397q.795-.502 1.86-.502.645 0 1.252.214.606.214 1.089.671.482.458.76 1.188.279.726.279 1.765v.527h-6.07v-1.113h4.613q0-.587-.239-1.04a1.8 1.8 0 0 0-.67-.72 1.88 1.88 0 0 0-1.005-.264 1.94 1.94 0 0 0-1.094.308 2.07 2.07 0 0 0-.715.796 2.3 2.3 0 0 0-.25 1.059v.87q0 .765.27 1.302.273.538.76.82.487.28 1.139.28.422 0 .77-.12.348-.125.602-.368.254-.244.387-.602l1.407.254a2.55 2.55 0 0 1-.606 1.089 2.94 2.94 0 0 1-1.089.72q-.651.255-1.486.254m10.648-5.926-1.347.239a1.6 1.6 0 0 0-.268-.493 1.3 1.3 0 0 0-.487-.382q-.309-.15-.771-.15-.631 0-1.054.284-.423.278-.423.72 0 .384.284.617.283.234.915.383l1.213.278q1.053.244 1.57.751t.518 1.318q0 .686-.398 1.223-.393.531-1.099.835-.701.303-1.626.303-1.282 0-2.093-.547-.81-.552-.994-1.566l1.437-.219q.134.562.552.85.417.285 1.088.284.731 0 1.169-.303.437-.309.437-.751a.78.78 0 0 0-.268-.602q-.264-.243-.81-.368l-1.293-.283q-1.07-.243-1.581-.775-.507-.532-.507-1.348 0-.675.378-1.183.378-.507 1.044-.79.666-.29 1.526-.289 1.238 0 1.949.537.71.532.94 1.427"/></g></svg>
